talent/images/icons/facebook.svg

<svg width="27" height="48" viewBox="0 0 27 48" fill="none" xmlns="http://www.w3.org/2000/svg">
<g id="facebook">
<path id="XMLID_835_" d="M0.882592 25.5648H6.14417V47.2258C6.14417 47.6535 6.4907 48 6.91836 48H15.8395C16.2672 48 16.6137 47.6535 16.6137 47.2258V25.6668H22.6624C23.0557 25.6668 23.3865 25.3717 23.4314 24.9811L24.3501 17.0066C24.3753 16.7871 24.3058 16.5674 24.159 16.4028C24.0121 16.2381 23.8018 16.1438 23.5812 16.1438H16.6141V11.145C16.6141 9.63809 17.4254 8.87396 19.0258 8.87396C19.2539 8.87396 23.5812 8.87396 23.5812 8.87396C24.0088 8.87396 24.3554 8.52728 24.3554 8.09977V0.779923C24.3554 0.352258 24.0088 0.00572903 23.5812 0.00572903H17.3032C17.259 0.00356129 17.1606 0 17.0157 0C15.9264 0 12.1401 0.213832 9.14928 2.96532C5.83542 6.0144 6.29606 9.66519 6.40615 10.2982V16.1436H0.882592C0.454927 16.1436 0.108398 16.4902 0.108398 16.9178V24.7905C0.108398 25.2181 0.454927 25.5648 0.882592 25.5648Z" fill="white"/>
</g>
</svg>

<svg width="27" height="48" fill="none" xmlns="http://www.w3.org/2000/svg"><path d="M.883 25.565h5.261v21.66c0 .428.347.775.774.775h8.921a.774.774 0 00.775-.774v-21.56h6.048a.774.774 0 00.77-.685l.918-7.974a.774.774 0 00-.769-.863h-6.967v-4.999c0-1.507.811-2.271 2.412-2.271h4.555a.774.774 0 00.774-.774V.78a.774.774 0 00-.774-.774h-6.278A6.15 6.15 0 0017.016 0c-1.09 0-4.876.214-7.867 2.965-3.314 3.05-2.853 6.7-2.743 7.333v5.846H.883a.774.774 0 00-.775.774v7.873c0 .427.347.774.775.774z" fill="#fff"/></svg>
